src/assets/outline/Ghost.svg

<svg width="24" height="24" viewBox="0 0 24 24"  xmlns="http://www.w3.org/2000/svg">
<path d="M15.3303 22.75C14.9103 22.75 14.4803 22.6 14.1503 22.3L12.1503 20.47C12.0703 20.4 11.9103 20.4 11.8203 20.47L9.83026 22.3C9.17026 22.91 8.14022 22.9 7.48022 22.3L5.48022 20.47C5.40022 20.4 5.24027 20.4 5.15027 20.47L4.16022 21.38C3.25022 22.21 2.53024 22.08 2.18024 21.92C1.83024 21.76 1.24023 21.32 1.24023 20.07V12.18C1.24023 6.14999 6.06023 1.25 11.9902 1.25C17.9202 1.25 22.7402 6.14999 22.7402 12.18V20.07C22.7402 21.32 22.1502 21.77 21.8002 21.92C21.4502 22.07 20.7303 22.21 19.8203 21.38L18.8203 20.47C18.7403 20.4 18.5802 20.4 18.5002 20.47L16.5002 22.3C16.1802 22.6 15.7603 22.75 15.3303 22.75ZM12.0002 18.91C12.4202 18.91 12.8502 19.06 13.1702 19.36L15.1702 21.19C15.2502 21.26 15.4102 21.26 15.4902 21.19L17.4902 19.36C18.1502 18.76 19.1803 18.76 19.8403 19.36L20.8403 20.27C21.0103 20.42 21.1202 20.49 21.1902 20.51C21.2202 20.44 21.2502 20.3 21.2502 20.06V12.17C21.2502 6.97001 17.1002 2.73999 12.0002 2.73999C6.90024 2.73999 2.75024 6.97001 2.75024 12.17V20.06C2.75024 20.3 2.79024 20.44 2.81024 20.51C2.88024 20.48 3.00022 20.42 3.16022 20.27L4.16022 19.36C4.82022 18.76 5.85025 18.76 6.51025 19.36L8.51025 21.19C8.59025 21.26 8.75026 21.26 8.83026 21.19L10.8303 19.36C11.1503 19.06 11.5802 18.91 12.0002 18.91Z" />
<path d="M12.0003 16.0703C10.4303 16.0703 8.86025 15.5803 7.55025 14.6003C7.22025 14.3503 7.15029 13.8803 7.40029 13.5503C7.65029 13.2203 8.12027 13.1503 8.45027 13.4003C10.5403 14.9703 13.4602 14.9703 15.5502 13.4003C15.8802 13.1503 16.3502 13.2203 16.6002 13.5503C16.8502 13.8803 16.7803 14.3503 16.4503 14.6003C15.1403 15.5803 13.5703 16.0703 12.0003 16.0703Z" />
<path d="M12 11.75C10.48 11.75 9.25 10.52 9.25 9C9.25 7.48 10.48 6.25 12 6.25C13.52 6.25 14.75 7.48 14.75 9C14.75 10.52 13.52 11.75 12 11.75ZM12 7.75C11.31 7.75 10.75 8.31 10.75 9C10.75 9.69 11.31 10.25 12 10.25C12.69 10.25 13.25 9.69 13.25 9C13.25 8.31 12.69 7.75 12 7.75Z" />
</svg>

<?xml version="1.0" encoding="UTF-8"?>
<svg width="24" height="24" viewBox="0 0 24 24" xmlns="http://www.w3.org/2000/svg">
 <path d="m15.33 22.75c-0.42 0-0.85-0.15-1.18-0.45l-2-1.83c-0.08-0.07-0.24-0.07-0.33 0l-1.99 1.83c-0.66 0.61-1.69 0.6-2.35 0l-2-1.83c-0.08-0.07-0.23995-0.07-0.32995 0l-0.99005 0.91c-0.91 0.83-1.63 0.7-1.98 0.54s-0.94001-0.6-0.94001-1.85v-7.89c0-6.03 4.82-10.93 10.75-10.93 5.93 0 10.75 4.9 10.75 10.93v7.89c0 1.25-0.59 1.7-0.94 1.85s-1.0699 0.29-1.9799-0.54l-1-0.91c-0.08-0.07-0.2401-0.07-0.3201 0l-2 1.83c-0.32 0.3-0.7399 0.45-1.1699 0.45zm-3.3301-3.84c0.42 0 0.85 0.15 1.17 0.45l2 1.83c0.08 0.07 0.24 0.07 0.32 0l2-1.83c0.66-0.6 1.6901-0.6 2.3501 0l1 0.91c0.17 0.15 0.2799 0.22 0.3499 0.24 0.03-0.07 0.06-0.21 0.06-0.45v-7.89c0-5.2-4.15-9.43-9.25-9.43-5.1 0-9.25 4.23-9.25 9.43v7.89c0 0.24 0.04 0.38 0.06 0.45 0.07-0.03 0.18998-0.09 0.34998-0.24l1-0.91c0.66-0.6 1.69-0.6 2.35 0l2 1.83c0.08 0.07 0.24001 0.07 0.32001 0l2-1.83c0.32-0.3 0.7499-0.45 1.1699-0.45z"/>
 <path d="m12 16.07c-1.57 0-3.14-0.49-4.45-1.47-0.33-0.25-0.39996-0.72-0.14996-1.05s0.71998-0.4 1.05-0.15c2.09 1.57 5.0099 1.57 7.0999 0 0.33-0.25 0.8-0.18 1.05 0.15s0.1801 0.8-0.1499 1.05c-1.31 0.98-2.88 1.47-4.45 1.47z"/>
 <path d="m12 11.75c-1.52 0-2.75-1.23-2.75-2.75s1.23-2.75 2.75-2.75 2.75 1.23 2.75 2.75-1.23 2.75-2.75 2.75zm0-4c-0.69 0-1.25 0.56-1.25 1.25s0.56 1.25 1.25 1.25 1.25-0.56 1.25-1.25-0.56-1.25-1.25-1.25z"/>
</svg>
